MODULE MainModule
	TASK PERS tooldata toolCry:=[TRUE,[[70.6742,1.74902,179.474],[0.967172,0.0401294,-0.250718,0.0104026]],[2,[0,50,88],[1,0,0,0],0,0,0]];
	TASK PERS wobjdata wobjCry:=[FALSE,TRUE,"",[[598.191,-138.135,230.382],[0.999974,0.00333558,-0.00143172,0.00625713]],[[0,0,0],[1,0,0,0]]];
	PROC main()
		!Crystal Mech
		!Set Do CONVEYOR HIGH;
		WaitTime 3;
		!Start  point is home;
		MoveJ [[66.25,-226.50,102.08],[0.735848,0.235429,0.612915,-0.16564],[-1,-1,0,1],[9E+09,9E+09,9E+09,9E+09,9E+09,9E+09]], v600, z50, toolCry\WObj:=wobjCry;
		MoveJ [[-54.37,-257.08,46.13],[0.8142,0.116346,0.561054,-0.0935965],[-1,-1,0,1],[9E+09,9E+09,9E+09,9E+09,9E+09,9E+09]], v600, z50, toolCry\WObj:=wobjCry;
		!Pick Tool;
		MoveJ [[-101.32,-268.99,24.35],[0.8386,0.0689005,0.536483,-0.0647253],[-1,-1,0,1],[9E+09,9E+09,9E+09,9E+09,9E+09,9E+09]], v600, z50, toolCry\WObj:=wobjCry;
		MoveL [[-104.41,-268.80,-28.42],[0.838583,0.0688668,0.536514,-0.0647233],[-1,-1,0,1],[9E+09,9E+09,9E+09,9E+09,9E+09,9E+09]], v600, z50, toolCry\WObj:=wobjCry;
		WaitTime 3;
		!Navigate workpiece;
		ClkReset clock1;
		ClkStart clock1;
		TPWrite "Applying Sealant";
		MoveL [[-99.92,-268.98,27.26],[0.838596,0.0688692,0.536494,-0.0647165],[-1,-1,0,1],[9E+09,9E+09,9E+09,9E+09,9E+09,9E+09]], v600, z50, toolCry\WObj:=wobjCry;
		MoveL [[8.33,-82.25,-18.61],[0.715539,0.199124,0.647886,-0.169106],[-1,0,-1,1],[9E+09,9E+09,9E+09,9E+09,9E+09,9E+09]], v600, z50, toolCry\WObj:=wobjCry;
		!Sealant at Left side;
		MoveL [[0.16,-49.73,-52.68],[0.708778,0.357877,0.595166,-0.123835],[-1,0,0,1],[9E+09,9E+09,9E+09,9E+09,9E+09,9E+09]], v500, z50, toolCry\WObj:=wobjCry;
		MoveL [[40.96,-55.60,-52.68],[0.708787,0.357904,0.595138,-0.123839],[-1,0,0,1],[9E+09,9E+09,9E+09,9E+09,9E+09,9E+09]], v500, z50, toolCry\WObj:=wobjCry;
		MoveL [[91.77,-59.34,-52.68],[0.708792,0.357884,0.595146,-0.123832],[-1,0,0,1],[9E+09,9E+09,9E+09,9E+09,9E+09,9E+09]], v500, z50, toolCry\WObj:=wobjCry;
		MoveL [[136.02,-60.95,-52.68],[0.708794,0.357882,0.595143,-0.123838],[-1,0,0,1],[9E+09,9E+09,9E+09,9E+09,9E+09,9E+09]], v500, z50, toolCry\WObj:=wobjCry;
		MoveL [[183.01,-59.06,-52.68],[0.70879,0.357879,0.595149,-0.123839],[-1,0,0,1],[9E+09,9E+09,9E+09,9E+09,9E+09,9E+09]], v500, z50, toolCry\WObj:=wobjCry;
		MoveL [[235.81,-56.32,-52.68],[0.708792,0.357888,0.595141,-0.123842],[-1,0,-1,1],[9E+09,9E+09,9E+09,9E+09,9E+09,9E+09]], v500, z50, toolCry\WObj:=wobjCry;
		MoveL [[274.49,-50.92,-52.68],[0.708795,0.357874,0.595144,-0.123852],[-1,0,-1,1],[9E+09,9E+09,9E+09,9E+09,9E+09,9E+09]], v500, z50, toolCry\WObj:=wobjCry;
		MoveL [[274.49,-50.93,-52.67],[0.708797,0.357873,0.595142,-0.123853],[-1,0,-1,1],[9E+09,9E+09,9E+09,9E+09,9E+09,9E+09]], v500, z50, toolCry\WObj:=wobjCry;
		MoveC [[299.70,-33.90,-54.07],[0.724505,0.092031,0.676803,-0.0925288],[-1,-1,0,1],[9E+09,9E+09,9E+09,9E+09,9E+09,9E+09]], [[311.77,-5.86,-53.95],[0.739607,0.1,0.660667,-0.0806258],[-1,-1,0,1],[9E+09,9E+09,9E+09,9E+09,9E+09,9E+09]], v500, z10, toolCry\WObj:=wobjCry;
		!Sealant at Front side;
		MoveL [[315.08,23.07,-53.97],[0.72349,0.0927114,0.677781,-0.0926304],[-1,0,-1,1],[9E+09,9E+09,9E+09,9E+09,9E+09,9E+09]], v500, z50, toolCry\WObj:=wobjCry;
		MoveL [[319.41,80.10,-55.12],[0.722925,0.0924542,0.678362,-0.0930448],[-1,0,-1,1],[9E+09,9E+09,9E+09,9E+09,9E+09,9E+09]], v500, z50, toolCry\WObj:=wobjCry;
		MoveC [[330.36,141.26,-51.93],[0.723926,0.0742252,0.681975,-0.0730271],[0,-1,0,0],[9E+09,9E+09,9E+09,9E+09,9E+09,9E+09]], [[318.79,195.94,-52.25],[0.724449,0.092003,0.676863,-0.0925475],[0,0,-1,1],[9E+09,9E+09,9E+09,9E+09,9E+09,9E+09]], v500, z10, toolCry\WObj:=wobjCry;
		MoveL [[314.29,250.92,-52.24],[0.724453,0.092005,0.676859,-0.0925488],[0,1,-1,1],[9E+09,9E+09,9E+09,9E+09,9E+09,9E+09]], v500, z50, toolCry\WObj:=wobjCry;
		MoveL [[307.44,292.52,-55.21],[0.724455,0.0920079,0.676857,-0.0925453],[0,1,-1,1],[9E+09,9E+09,9E+09,9E+09,9E+09,9E+09]], v500, z50, toolCry\WObj:=wobjCry;
		MoveC [[293.23,316.58,-55.20],[0.72446,0.0919967,0.676855,-0.0925254],[0,1,-1,1],[9E+09,9E+09,9E+09,9E+09,9E+09,9E+09]], [[255.74,326.94,-54.76],[0.734718,-0.308581,0.604111,-0.00405665],[0,-1,-1,1],[9E+09,9E+09,9E+09,9E+09,9E+09,9E+09]], v500, z10, toolCry\WObj:=wobjCry;
		!Sealant at Right side;
		MoveL [[206.15,333.19,-54.75],[0.734721,-0.308587,0.604104,-0.00406769],[0,-1,-1,1],[9E+09,9E+09,9E+09,9E+09,9E+09,9E+09]], v500, z50, toolCry\WObj:=wobjCry;
		MoveL [[142.68,334.09,-54.74],[0.734724,-0.308601,0.604094,-0.00407564],[0,-1,-1,1],[9E+09,9E+09,9E+09,9E+09,9E+09,9E+09]], v500, z50, toolCry\WObj:=wobjCry;
		MoveL [[87.37,334.08,-54.74],[0.734721,-0.308613,0.604091,-0.00408034],[0,0,-1,1],[9E+09,9E+09,9E+09,9E+09,9E+09,9E+09]], v500, z50, toolCry\WObj:=wobjCry;
		MoveL [[32.12,329.31,-54.75],[0.734715,-0.308618,0.604097,-0.00407969],[0,0,-1,1],[9E+09,9E+09,9E+09,9E+09,9E+09,9E+09]], v500, z50, toolCry\WObj:=wobjCry;
		MoveL [[-3.20,325.01,-54.75],[0.734706,-0.308623,0.604104,-0.00407979],[0,0,-1,1],[9E+09,9E+09,9E+09,9E+09,9E+09,9E+09]], v500, z50, toolCry\WObj:=wobjCry;
		MoveC [[-36.43,309.32,-54.72],[0.585173,-0.512805,0.602532,0.177649],[0,-1,0,1],[9E+09,9E+09,9E+09,9E+09,9E+09,9E+09]], [[-48.83,271.51,-52.86],[0.593388,-0.680975,0.385375,0.188811],[0,-1,-1,1],[9E+09,9E+09,9E+09,9E+09,9E+09,9E+09]], v500, z50, toolCry\WObj:=wobjCry;
		!Sealant at back side;
		MoveL [[-50.15,245.60,-53.56],[0.0678456,0.807272,-0.106341,-0.576541],[0,-3,0,1],[9E+09,9E+09,9E+09,9E+09,9E+09,9E+09]], v500, z50, toolCry\WObj:=wobjCry;
		MoveL [[-55.10,197.34,-53.56],[0.0678541,0.807265,-0.106354,-0.576548],[0,-3,0,1],[9E+09,9E+09,9E+09,9E+09,9E+09,9E+09]], v500, z50, toolCry\WObj:=wobjCry;
		MoveC [[-65.75,142.38,-53.56],[0.0678566,0.807265,-0.106342,-0.576551],[0,-3,0,1],[9E+09,9E+09,9E+09,9E+09,9E+09,9E+09]], [[-57.59,76.26,-53.56],[0.0678525,0.807258,-0.106341,-0.57656],[-1,-3,0,1],[9E+09,9E+09,9E+09,9E+09,9E+09,9E+09]], v500, z50, toolCry\WObj:=wobjCry;
		MoveL [[-52.41,23.94,-53.56],[0.067855,0.807255,-0.106343,-0.576564],[-1,-3,0,1],[9E+09,9E+09,9E+09,9E+09,9E+09,9E+09]], v500, z50, toolCry\WObj:=wobjCry;
		MoveL [[-44.03,-19.56,-53.58],[0.067838,0.807252,-0.106337,-0.576571],[-1,-3,0,1],[9E+09,9E+09,9E+09,9E+09,9E+09,9E+09]], v500, z50, toolCry\WObj:=wobjCry;
		MoveL [[-27.76,-47.30,-53.60],[0.0678274,0.807261,-0.106336,-0.57656],[-1,-3,-1,1],[9E+09,9E+09,9E+09,9E+09,9E+09,9E+09]], v500, z50, toolCry\WObj:=wobjCry;
		MoveL [[-32.89,-41.06,-52.84],[0.136833,-0.797702,0.00233467,0.587318],[-1,-3,-1,1],[9E+09,9E+09,9E+09,9E+09,9E+09,9E+09]], v500, z50, toolCry\WObj:=wobjCry;
		MoveL [[-16.19,-50.29,-53.12],[0.00879911,0.846481,0.123249,-0.517883],[-1,-3,-1,1],[9E+09,9E+09,9E+09,9E+09,9E+09,9E+09]], v500, z50, toolCry\WObj:=wobjCry;
		MoveL [[9.87,-53.15,-55.11],[0.0373566,0.739154,0.426387,-0.520047],[-1,-3,-1,1],[9E+09,9E+09,9E+09,9E+09,9E+09,9E+09]], v500, z50, toolCry\WObj:=wobjCry;
		!Sealant done, go back to home;
		TPWrite "Sealant Finished";
		MoveL [[124.11,-119.00,42.88],[0.343372,0.873223,0.325543,0.116612],[-1,-1,-2,1],[9E+09,9E+09,9E+09,9E+09,9E+09,9E+09]], v600, z50, toolCry\WObj:=wobjCry;
		MoveJ [[66.25,-226.50,102.08],[0.735848,0.235429,0.612915,-0.16564],[-1,-1,0,1],[9E+09,9E+09,9E+09,9E+09,9E+09,9E+09]], v600, z50, toolCry\WObj:=wobjCry;
		!New loop, return home, place tool;
		ClkStop clock1;
		TPWrite "Timer = "\Num:=ClkRead(clock1);
		WaitTime 3;
	ENDPROC
ENDMODULE